icons/op-cart-24.svg

<svg width="24" height="24" viewBox="0 0 24 24" fill="none" xmlns="http://www.w3.org/2000/svg">
<path d="M18.651 14.3937L20 7.68504L6.98039 5.92126L5.9451 5.22835C5.9451 5.16535 5.97647 5.07087 5.97647 5.00787C5.97647 4.44094 5.53726 4 4.97255 4C4.43922 4 4 4.44094 4 5.00787C4 5.54331 4.43922 6.01575 4.97255 6.01575C5.06667 6.01575 5.12941 5.98425 5.19216 5.95276L6.41569 6.77165L8.4549 14.8346L9.05098 14.8031L8.51765 16.5669H8.4549C7.48235 16.5669 6.72941 17.3228 6.72941 18.2677C6.72941 19.2441 7.48235 20 8.4549 20C9.1451 20 9.74118 19.5906 10.0235 18.9606H15.4196C15.6706 19.5591 16.2667 20 16.9569 20C17.898 20 18.651 19.2441 18.651 18.3307C18.651 17.3858 17.898 16.6299 16.9569 16.6299C16.1726 16.6299 15.5137 17.1969 15.3569 17.9213H10.1176C10.0235 17.5118 9.80392 17.1654 9.4902 16.9134L10.149 14.7717L18.651 14.3937Z" fill="black"/>
</svg>

<svg xmlns="http://www.w3.org/2000/svg" width="24" height="24" viewBox="0 0 24 24"><path d="M18.651 14.394 20 7.685 6.98 5.921l-1.035-.693c0-.063.031-.157.031-.22A.993.993 0 0 0 4.973 4C4.439 4 4 4.441 4 5.008c0 .535.439 1.008.973 1.008.094 0 .156-.032.219-.063l1.224.819 2.039 8.063.596-.032-.533 1.764h-.063c-.973 0-1.726.756-1.726 1.701 0 .976.753 1.732 1.726 1.732.69 0 1.286-.409 1.569-1.039h5.396A1.687 1.687 0 0 0 16.957 20a1.684 1.684 0 1 0 0-3.37c-.784 0-1.443.567-1.6 1.291h-5.239a1.793 1.793 0 0 0-.628-1.008l.659-2.141 8.502-.378Z"/></svg>
